svgs/sharp-regular/bell-school.svg

<svg xmlns="http://www.w3.org/2000/svg" viewBox="0 0 512 512"><!--! Font Awesome Pro 6.6.0 by @fontawesome - https://fontawesome.com License - https://fontawesome.com/license (Commercial License) Copyright 2024 Fonticons, Inc. --><path d="M208 48a160 160 0 1 1 0 320 160 160 0 1 1 0-320zM352 358.1c39.4-37.9 64-91.1 64-150.1C416 93.1 322.9 0 208 0S0 93.1 0 208c0 59 24.6 112.2 64 150.1L64 488l0 24 24 0 184 0 56 0 24 0 112 0 24 0 0-24 0-46.4c14.3-8.3 24-23.8 24-41.6c0-26.5-21.5-48-48-48s-48 21.5-48 48c0 17.8 9.7 33.3 24 41.6l0 22.4-88 0 0-105.9zM304 464l-32 0-160 0 0-71.4c28.7 15 61.4 23.4 96 23.4s67.3-8.5 96-23.4l0 71.4zM208 160a48 48 0 1 1 0 96 48 48 0 1 1 0-96zm0 144a96 96 0 1 0 0-192 96 96 0 1 0 0 192z"/></svg>

<svg xmlns="http://www.w3.org/2000/svg" viewBox="0 0 512 512"><!--! Font Awesome Pro 6.5.2 by @fontawesome - https://fontawesome.com License - https://fontawesome.com/license (Commercial License) Copyright 2024 Fonticons, Inc. --><path d="M208 48a160 160 0 1 1 0 320 160 160 0 1 1 0-320zM352 358.1c39.4-37.9 64-91.1 64-150.1C416 93.1 322.9 0 208 0S0 93.1 0 208c0 59 24.6 112.2 64 150.1V488v24H88 272h56 24H464h24V488 441.6c14.3-8.3 24-23.8 24-41.6c0-26.5-21.5-48-48-48s-48 21.5-48 48c0 17.8 9.7 33.3 24 41.6V464H352V358.1zM304 464H272 112V392.6c28.7 15 61.4 23.4 96 23.4s67.3-8.5 96-23.4V464zM208 160a48 48 0 1 1 0 96 48 48 0 1 1 0-96zm0 144a96 96 0 1 0 0-192 96 96 0 1 0 0 192z"/></svg>
